X:20
T:Gan Ainm
R:Jig
S:Jim McKillop, Antrim (fiddle)
D:From RTE 'The Pure Drop'
N:As played
M:6/8
Z:Bernie Stocks
K:G
FDD ADD | BDD cBA | Bcd ecA | ABG FED | FDD ADD | BDD cBA | Bcd ecA | AGF G2A |
FDD ADD | BDD cBA | Bcd ecA | ABG FED |GFG AGA | B^AB c-^c2 | d^cd ecA | AGF G2B ||
def gdB | gdB {d}cBA | Bcd ecA | ABG FED | def gdB | gdB {d}cBA | Bcd ecA | AGF G2B |
def gdB | gdB {d}cBA | Bcd ecA | ABG FED |GFG AGA | BAB cBc | d^cd ecA | AGF G2A ||
